!!!SOCIAL_FUNCTION:	songs of games played in a ceremonial manner
!!!PDT:	1932
!!!OTL: No_20_Dancing_Song_from_the_South_God_(c).krn
!!!REG: Wisconsin
!!!LANG: Non-Tone
!!!LING_GROUP: Algonquin
**kern
*staff1
=1-
*clefF4
*k[f#]
*M3/4
2r
8.B\L
16B\Jk
=2
4B\
4B\
8.B\L
16A\Jk
=3
2B\
8.c\L
16c\Jk
=4||
*M2/4
8.B\L
16B\Jk
8.A\L
16F#\Jk
=5||
*M3/4
2A\
8.B\L
16B\Jk
=6||
*M3/8
8A\L
8F#\
8E\J
=7||
*M2/8
8r
16.B\LL
32B\JJk
=8||
*M3/8
8A\L
8G\
16.E\L
32E\JJk
=9||
*M2/8
8E\
16r
16A\
=10
8G\L
8E\J
=11||
*M3/8
16.E\LL
32E\K
16E\JJ
16r
16.B\LL
32B\JJk
=12
8A\L
8G\
16.E\L
32E\JJk
=13||
*M2/8
8E\
16r
16G\
=14
8G\L
8E\J
=15||
*M3/8
16.E\LL
32E\K
16E\JJ
16r
16.B\LL
32B\JJk
=16
8A\L
8G\
16.E\L
32E\JJk
=17||
*M2/8
8E\
16r
16G\
=18
8G\L
8E\J
=19||
*M3/8
16.E\LL
32E\K
16E\JJ
16r
16.B\LL
32B\JJk
=20
8A\L
8G\
16.E\L
32E\JJk
=21||
*M2/8
8E\
16r
16G\
=22
8G\L
8E\J
=23||
*M3/8
16.E\LL
32E\K
16E\JJ
16r
16.B\LL
32B\JJk
=24||
*M2/8
16A\LL
16G\J
8E\J
==
*-
